!!!COM: Haydn, Franz Joseph
!!!OTL: Quartet 
!!!ONM: Opus 77, No. 1
!!!OMV: 2
!!!CDT: 1732/3/31/-1809/5/31/
!!!OCY: \O3sterreich
**kern	**kern	**kern	**kern
*clefF4	*clefC3	*clefF	*clefF
*k[b-e-a-]	*k[b-e-a-]	*k[b-e-a-]	*k[b-e-a-]
*E-:	*E-:	*E-:	*E-:
*M4/4	*M4/4	*M4/4	*M4/4
=1	=1	=1	=1
2e-	2ee-	2ee-	2ee-
4G	4g	4g	4g
4c	4cc	4cc	4cc
=2	=2	=2	=2
4..A-	4..a-	4..a-	4..a-
16F	16f	16f	16f
8D	8d	8d	8d
4r	4.r	4r	4r
16r	.	16r	16r
16A-	.	16B-	16d
=3	=3	=3	=3
8G	2.r	8B-	8e-
8r	.	8r	8r
8D	.	8B-	8f
8r	.	8r	8r
8E-	.	8B-	8g
8r	.	8r	8r
4AA-	4f	4c	4a-
=4	=4	=4	=4
2.BB-	2e-	2B-	2g
.	8d	2r	8f
.	4.r	.	4.r
8AA-	.	.	.
8FF	.	.	.
=5	=5	=5	=5
2EE-	2e-	2ee-	2ee-
4GG	4G	4g	4g
4C	4c	4cc	4cc
=6	=6	=6	=6
4..AA-	4..A-	4..a-	4..a-
16FF	16F	16f	16f
8DD	8D	8d	8d
4r	4r	4r	4r
16r	16r	16r	16r
16AA-	16F	16B-	16d
=7	=7	=7	=7
8GG	8G	8B-	8e-
8r	8r	8r	8r
8AA-	8c	8f	8a-
8r	8r	8r	8r
8BB-	8B-	8e-	8g
8r	8r	8r	8r
8BB-	8F	8A-	8d
8r	8r	8r	8r
=8	=8	=8	=8
4E-	4G	4G	4e-
4EE-	2.r	2.r	8r
.	.	.	8e-
2r	.	.	8g
.	.	.	8b-
.	.	.	8ee-
.	.	.	8gg
=9	=9	=9	=9
1r	2ee-	[2gg	6bb-
.	.	.	32ccc
.	.	.	32bb-
.	.	.	8.aa-
.	.	.	16gg
.	.	.	=10
.	.	.	4aa-
.	4g	8.gg]	.
.	.	32aa-	.
.	.	32gg	.
.	.	.	8.aa-
.	4cc	8.ff	.
.	.	.	16bb-
.	.	16ee	.
.	.	.	8ccc
=10	=10	=10	.
1r	4..a-	4ff	.
.	.	.	4r
.	.	8.ff	.
.	.	.	16r
.	.	.	16ccc
.	16f	16gg	.
.	.	.	=11
.	.	.	8bb-
.	8d	8aa-	.
.	.	.	16r
.	4r	4r	.
.	.	.	16bb-
.	.	.	8aa-
.	.	.	16r
.	16r	16r	.
.	.	.	16aa-
.	16d	16aa-	.
.	.	.	8gg
=11	=11	=11	.
1r	8e-	8gg	.
.	.	.	16r
.	16r	16r	.
.	.	.	16gg
.	16e-	16gg	.
.	.	.	16ff
.	8f	8ff	.
.	.	.	16gg
.	.	.	16aa-
.	16r	16r	.
.	.	.	16ff
.	16f	16ff	.
.	.	.	=12
.	.	.	24ee-
.	8g	8ee-	.
.	.	.	16dd
.	.	.	16ff
.	16r	16r	.
.	.	.	16ee-
.	16g	16ee-	.
.	.	.	16gg
.	8a-	8cc	.
.	.	.	16ff
.	.	.	16aa-
.	16r	16r	.
.	.	.	16gg
.	16A-	16cc	.
.	.	.	=13
.	.	.	4..aa-
=12	=12	=12	.
1r	2.B-	2g	.
.	.	.	16ff
.	.	.	16dd
.	.	4f	.
.	.	.	16b-
.	.	.	16a
.	.	.	16b-
.	.	.	48..cc
.	4r	4r	48..dd
.	.	.	48..ee-
.	.	.	48..ff
.	.	.	48..gg
.	.	.	48..aa-
.	.	.	32aa
.	.	.	=14
.	.	.	4.bb-
=13	=13	=13	.
2.BB-	2.f	2.d	.
.	.	.	8gg
.	.	.	16ee-
.	.	.	16a
.	.	.	16b-
.	.	.	16g-
.	.	.	16g
4AA-	8.d	4f	.
.	.	.	16d
.	.	.	16e-
.	.	.	16B
.	16f	.	.
.	.	.	=15
.	.	.	16c
=14	=14	=14	.
4GG	4g	2e-	.
.	.	.	16d
.	.	.	16e-
.	.	.	16e
.	.	.	16f
4G	4E-	.	.
.	.	.	16g
.	.	.	16a-
.	.	.	16b
.	.	.	16cc
4.r	4.r	4g	.
.	.	.	16dd
.	.	.	16ee-
.	.	.	16ee
.	.	.	16ff
.	.	8r	.
.	.	.	16gg
.	.	.	16aa-
8GG	8G	8e-	.
.	.	.	16dd
.	.	.	=16
.	.	.	4ee-
=15	=15	=15	.
4AA-	4A-	4e-	.
.	.	.	4r
2r	2r	2r	.
.	.	.	2r
4BB-	8.d	4f	.
.	16a-	.	.
.	.	.	=17
.	.	.	4r
=16	=16	=16	.
2E-	8g	8g	.
.	8e-	8g	.
.	.	.	[4cc
.	8e-	8g	.
.	8e-	8g	.
.	.	.	16cc]
4GG	8e-	8g	.
.	.	.	16a
.	.	.	16ee-
.	8e-	8g	.
.	.	.	16cc
.	.	.	16a
4C	8e-	8g	.
.	.	.	16f
.	.	.	16e-
.	8e-	8g	.
.	.	.	16A
.	.	.	=18
.	.	.	4B-
=17	=17	=17	.
4..AA	8e-	8f	.
.	8e-	8f	.
.	.	.	4r
.	8e-	8f	.
.	8e-	8f	.
16EE-	.	.	.
.	.	.	4b-
8CC	8e-	8f	.
4.r	8e-	8f	.
.	.	.	8.b-
.	8e-	8f	.
.	8e-	8f	.
.	.	.	16cc
.	.	.	=19
.	.	.	24dd-
=18	=18	=18	.
4..BB-	8d-	8f	.
.	.	.	16a
.	.	.	16b-
.	8d-	8f	.
.	.	.	16cc
.	.	.	16dd-
.	8d-	8f	.
.	.	.	16cc
.	.	.	16dd-
.	8d-	8f	.
.	.	.	16b-
16FF	.	.	.
.	.	.	=20
.	.	.	8dd-
8DD-	8d-	8f	.
.	.	.	8cc
4.r	8d-	8f	.
.	.	.	8cc
.	8d-	8f	.
.	.	.	8cc
.	8c	8f	.
.	.	.	8cc
=19	=19	=19	.
4..GG-	8B-	8f	.
.	.	.	8ff
.	8B-	8e	.
.	.	.	8ff
.	8B-	8e	.
.	.	.	8ff
.	8B-	8e	.
16BB-	.	.	.
.	.	.	=21
.	.	.	4..gg-
4D-	8B-	8e	.
.	8B-	8e	.
4GG-	8B-	8e	.
.	8B-	8e	.
.	.	.	32ee-
.	.	.	32cc
.	.	.	8a
=20	=20	=20	.
2FF	8B-	8e	.
.	.	.	4.r
.	8A	8f	.
.	8A	8f	.
.	8A	8f	.
.	.	.	=22
.	.	.	[4ff
2r	8A	8f	.
.	8c	8a	.
.	.	.	16.ff]
.	8c	8a	.
.	.	.	32dd
.	.	.	16b-
.	8c	8a	.
.	.	.	16f
.	.	.	8d
=21	=21	=21	.
8FF	8c 8e-	8a	.
.	.	.	4r
8F	8e- 8c	8a	.
8F	8c 8e-	8a	.
.	.	.	16r
8F	8e- 8c	8a	.
.	.	.	16bb-
.	.	.	=23
.	.	.	16bb-
8F	8e- 8c	8a	.
.	.	.	16aa
.	.	.	16aa
8F	8c 8e-	8a	.
.	.	.	16aa-
.	.	.	16aa-
8F	8c 8e-	8a	.
.	.	.	16gg
.	.	.	16gg
8F	8e- 8c	8a	.
.	.	.	16gg-
.	.	.	16gg-
=22	=22	=22	.
8FF	8B- 8d	8b-	.
.	.	.	16ff
.	.	.	16ff
8F	8d 8B-	8b-	.
.	.	.	16ee
.	.	.	16ee
8F	8d 8B-	8b-	.
.	.	.	16ff
.	.	.	16gg
8F	8B- 8d	8b-	.
.	.	.	16ee-
.	.	.	=24
.	.	.	16ee-
8F	8d 8B-	8b- 8d	.
.	.	.	16dd
.	.	.	16gg
8F	8B- 8d	8b- 8d	.
.	.	.	16ff
.	.	.	16aa
8F	8B- 8d	8b- 8d	.
.	.	.	16bb-
.	.	.	16ccc
8F	8B- 8d	8d 8b-	.
.	.	.	16bb-
.	.	.	16eee-
=23	=23	=23	.
8FF	8c	8e-	.
.	.	.	16ddd
.	.	.	4r
8F	8c	8e-	.
8F	8c	8e-	.
.	.	.	16ff
8F	8c	8e-	.
.	.	.	16b-
.	.	.	=25
.	.	.	16b-
8F	8A	8e-	.
.	.	.	16a
.	.	.	16a
8F	8A	8e-	.
.	.	.	16b
.	.	.	16b
8F	8A	8e-	.
.	.	.	16cc
.	.	.	16cc
8F	8A	8c	.
.	.	.	16dd
.	.	.	16dd
=24	=24	=24	.
8FF	8B-	8d	.
.	.	.	16ee-
.	.	.	16ee-
8F	8B-	8d	.
.	.	.	16gg-
.	.	.	16gg-
8F	8B-	8d	.
.	.	.	16gg
.	.	.	16gg
8F	8B-	8d	.
.	.	.	16ee-
.	.	.	=26
.	.	.	8.ee-
8F	8B-	8d	.
8F	8B-	8d	.
.	.	.	16dd
.	.	.	8dd
8F	8B-	8d	.
.	.	.	16r
8F	8B-	8d	.
.	.	.	16dd
.	.	.	8dd
=25	=25	=25	.
8FF	8c	8e-	.
.	.	.	4r
8F	8c	8e-	.
8F	8c	8e-	.
.	.	.	16r
8F	8c	8e-	.
.	.	.	16dd
.	.	.	=27
.	.	.	16dd
8F	8A	8c	.
.	.	.	16dd-
.	.	.	16dd-
8F	8A	8c	.
.	.	.	16cc
.	.	.	16cc
8F	8A	8c	.
.	.	.	16gg
.	.	.	16gg
8F	8A	8c	.
.	.	.	16gg
.	.	.	16b
=26	=26	=26	.
8G	8A	8c	.
.	.	.	16cc
.	.	.	16dd
8G	8B-	8B-	.
.	.	.	16cc
.	.	.	16cc
8G	8B-	8B-	.
.	.	.	16gg
.	.	.	16gg
8G	8B-	8B-	.
.	.	.	16gg
.	.	.	=28
.	.	.	16a
8G	8B-	8B-	.
.	.	.	16ff
.	.	.	16ff
8G	8B-	8B-	.
.	.	.	16ff
.	.	.	16b-
8F	8B-	8B-	.
.	.	.	16bb-
.	.	.	16bb-
8F	8B-	8B-	.
.	.	.	16bb-
.	.	.	16aa
=27	=27	=27	.
8E	8G	8B-	.
.	.	.	16eee-
.	.	.	16eee-
8E	8G	8B-	.
.	.	.	16eee-
.	.	.	16ddd
8E	8G	8B-	.
.	.	.	16bbb-
.	.	.	16bbb-
8E	8G	8B-	.
.	.	.	16bbb-
.	.	.	=29
.	.	.	8ggg
8E	8g	8B-	.
.	.	.	4.r
8E	8g	8B-	.
8E	8g	8B-	.
8E	8g	8B-	.
.	.	.	4e-
=28	=28	=28	.
8E-	8f	8c	.
8r	8r	8r	.
.	.	.	8.c
8D	8f	8d	.
8r	8r	8r	.
.	.	.	16A
.	.	.	=30
.	.	.	4B-
8C	8f	8a	.
8r	8r	8r	.
.	.	.	4r
8BB-	8f	8b-	.
8r	8r	8r	.
.	.	.	2r
=29	=29	=29	.
8E-	8g	8b-	.
4.r	4.r	4.r	.
.	.	.	=31
.	.	.	[16g
2F	4A	2c	.
.	.	.	24g]
.	.	.	8g
.	.	.	8a
.	4E-	.	.
.	.	.	8b-
.	.	.	=32
.	.	.	64f
.	.	.	48..g
.	.	.	48..f
=30	=30	=30	.
2BB-	8D	8B-	.
.	.	.	48..e
.	.	.	48..f
.	.	.	48..g
.	8B-	8d	48..a
.	.	.	48..b-
.	.	.	48..cc
.	.	.	48..dd
.	8B-	8d	.
.	.	.	48..ee-
.	.	.	48..ff
.	.	.	32gg
.	8B-	8d	32aa
.	.	.	=33
.	.	.	2bb-
4DD	8B-	8d	.
.	8B-	8d	.
4GG	8B-	8d	.
.	8B-	8d	.
.	.	.	4dd-
=31	=31	=31	.
4..EE-	8B-	8c	.
.	8B-	8c	.
.	.	.	4gg-
.	8B-	8c	.
.	8B-	8c	.
.	.	.	=34
.	.	.	4..ee-
16CC	.	.	.
4..EE	8B-	8d-	.
.	8B-	8d-	.
.	8B-	8d-	.
.	.	.	16cc
.	8B-	8d-	.
.	.	.	8a-
16EE	.	.	.
=32	=32	=32	.
8FF	8B-	8d	.
.	.	.	4r
8FF	8B-	8d	.
8FF	8B-	8d	.
.	.	.	16r
.	.	.	16cc
8FF	8B-	8d	.
.	.	.	=35
.	.	.	8dd-
8FF	8A	8e- 8c	.
.	.	.	16r
.	.	.	16dd-
8FF	8A	8e- 8c	.
.	.	.	8ee-
8FF	8A	8e- 8c	.
.	.	.	16r
.	.	.	16ee-
8FF	8c	8e-	.
.	.	.	8ff
=33	=33	=33	.
8BB-	8B-	8d-	.
.	.	.	4r
8B-	8d-	8f	.
8B-	8d-	8f	.
.	.	.	16r
.	.	.	16dd
8B-	8d-	8f	.
.	.	.	=36
.	.	.	8ee-
8B-	8d-	8g-	.
.	.	.	16r
.	.	.	16ee-
8B-	8d-	8g-	.
.	.	.	8ff
8G-	8e-	8g-	.
.	.	.	16r
.	.	.	16ff
8G-	8e-	8g-	.
.	.	.	8gg-
=34	=34	=34	.
8A-	8c	8g-	.
.	.	.	4r
8A-	8c	8g-	.
8A-	8c	8g-	.
.	.	.	16r
.	.	.	32ee
8A-	8c	8g-	32gg
.	.	.	=37
.	.	.	8ff
8A-	8a-	8g-	.
.	.	.	16r
.	.	.	32ff
4.r	8a-	8g-	.
.	.	.	32aa-
.	.	.	8gg
.	8a-	8g-	.
.	.	.	16r
.	.	.	32gg
.	8a-	8g-	.
.	.	.	32bb-
.	.	.	8aa-
=35	=35	=35	.
1r	8a-	8f	.
.	.	.	16r
.	.	.	32bb-
.	8a-	8f	32aa-
.	.	.	8gg
.	8a-	8c	.
.	.	.	8ff
.	8a-	8c	.
.	.	.	=38
.	.	.	2ccc
.	8a-	8d-	.
.	8a-	8d-	.
.	8a-	8b-	.
.	8a-	8b-	.
.	.	.	4ee
=36	=36	=36	.
1r	8g-	8b-	.
.	8g-	8b-	.
.	.	.	4aa-
.	8d	8b-	.
.	8d	8b-	.
.	.	.	=39
.	.	.	4..gg
.	8e-	8b-	.
.	8e-	8b-	.
.	8cc	8b-	.
.	.	.	16ee
.	8cc	8b-	.
.	.	.	8cc
=37	=37	=37	.
1r	8cc	8a-	.
.	.	.	8r
.	8cc	8a-	.
.	.	.	4ff
.	8cc	8e	.
.	8cc	8e	.
.	.	.	=40
.	.	.	4..ee
.	8cc	8f	.
.	8cc	8f	.
.	8b	8d-	.
.	.	.	16cc
.	8b	8d-	.
.	.	.	8g
=38	=38	=38	.
8CC	8cc	8c	.
.	.	.	8r
8C	8g	8e	.
.	.	.	8.a-
8C	8g	8e	.
.	.	.	16f
8C	8g	8e	.
.	.	.	=41
.	.	.	4..cc
8C	8g	8cc	.
8C	8g	8cc	.
8C	8f	8b	.
.	.	.	32g
8C	8f	8b	.
.	.	.	32e
.	.	.	4c
=39	=39	=39	.
8CC	8e	8cc	.
8C	8e	8cc	.
.	.	.	4c
8C	8e	8cc	.
8C	8e	8cc	.
.	.	.	=42
.	.	.	[16c
.	.	.	24c]
8C	8e	8cc	.
.	.	.	=43
.	.	.	2dd-
8C	8e	8cc	.
8C	8a-	8b	.
8C	8a-	8b	.
=40	=40	=40	.
8CC	8g	8cc	.
.	.	.	4f
8C	8g	8cc	.
8C	8g	8cc	.
.	.	.	4b-
8C	8g	8cc	.
8C	8e	8cc	.
.	.	.	=44
.	.	.	4..g-
8C	8e	8cc	.
8C	8f	8b	.
8C	8f	8b	.
.	.	.	16e-
=41	=41	=41	.
4..C	4..e	4..cc	.
.	.	.	8c
.	.	.	8r
.	.	.	4g-
32GG	32g	32g	.
32EE	32e	32e	.
4CC	4c	4c	.
.	.	.	=45
.	.	.	4..f
4CC	4c	4c	.
.	.	.	32g-
.	.	.	32f
=42	=42	=42	.
1CC	1C	1c	.
.	.	.	8.e-
.	.	.	16A-
.	.	.	8.a-
.	.	.	16a-
.	.	.	=46
.	.	.	4..g-
.	.	.	32a-
.	.	.	32g-
=43	=43	=43	.
2.DD-	2.D-	1d-	.
.	.	.	8.f
.	.	.	16B-
.	.	.	8.b-
.	.	.	16b-
.	.	.	=47
.	.	.	4..a-
4GG	4F-	.	.
.	.	.	32b-
.	.	.	32a-
=44	=44	=44	.
2AA-	2E-	2c	.
.	.	.	8.g
.	.	.	16c
.	.	.	8.cc
.	.	.	16b-
4..r	4r	4r	.
.	.	.	=48
.	.	.	8a-
.	.	.	16r
.	.	.	16f
.	[4A-	[4e-	.
.	.	.	8.cc
16CC	.	.	.
.	.	.	16b-
=45	=45	=45	.
8DD-	4A-]	8.e-]	.
.	.	.	8a-
16r	.	.	.
.	.	.	16r
16DD-	.	16A-	.
.	.	.	16f
8FF	8.A-	8.d-	.
.	.	.	8.cc
16r	.	.	.
16FF	16A-	16d-	.
.	.	.	16b-
8AA-	4A-	8.d-	.
.	.	.	=49
.	.	.	8a-
16r	.	.	.
.	.	.	16r
16AA-	.	32e-	.
.	.	.	16a-
.	.	32d-	.
8C	4r	8.c	.
.	.	.	8g
16r	.	.	.
.	.	.	16r
16DD	.	16f	.
.	.	.	16g
=46	=46	=46	.
8EE-	4B-	8.f	.
.	.	.	8f
16r	.	.	.
.	.	.	16r
16EE-	.	16B-	.
.	.	.	16f
8GG-	8.B-	8.e-	.
.	.	.	8f
16r	.	.	.
.	.	.	16r
16GG-	16B-	16e-	.
.	.	.	16f
8BB-	4B-	4e-	.
.	.	.	=50
.	.	.	8f
16r	.	.	.
.	.	.	16r
16BB-	.	.	.
.	.	.	16f
8D-	4r	8.d-	.
.	.	.	8g
16r	.	.	.
.	.	.	16r
16EE	.	16g	.
.	.	.	16g
=47	=47	=47	.
8FF	4c	8.g	.
.	.	.	8a-
16r	.	.	.
.	.	.	4r
16FF	.	16c	.
8AA-	8.c	8.f	.
16r	.	.	.
.	.	.	16r
16AA-	16c	16f	.
.	.	.	16f
8C	4c	8.f	.
.	.	.	=51
.	.	.	8g
16r	.	.	.
.	.	.	16r
16C	.	32g	.
.	.	.	16g
.	.	32f	.
8E	8.c	8.e	.
.	.	.	8a-
16r	.	.	.
.	.	.	16r
16E	16c	16g	.
.	.	.	16a
=48	=48	=48	.
8F	8c	8a-	.
.	.	.	8b-
8r	8r	8r	.
.	.	.	4r
8.E	8.c	8.g	.
.	.	.	16r
16E	16c	16g	.
.	.	.	16g
8F	8c	8a-	.
.	.	.	=52
.	.	.	8a-
8r	8r	8r	.
.	.	.	16r
.	.	.	16a
8.E	8.c	8.g	.
.	.	.	8b-
.	.	.	16r
16E	16c	16g	.
.	.	.	16b
=49	=49	=49	.
8F	8c	8a-	.
.	.	.	8cc
16r	16r	16r	.
.	.	.	4r
16F	16c	16f	.
8G	8c	8e	.
16r	16r	16r	.
.	.	.	16r
16G	16c	16e	.
.	.	.	16cc
8A-	8c	8f	.
.	.	.	=53
.	.	.	8cc
16r	16r	16r	.
.	.	.	4r
16A-	16c	16f	.
8A	8c	8e-	.
16r	16r	16r	.
.	.	.	16r
16A	16c	16e-	.
.	.	.	16b
=50	=50	=50	.
4B-	8B-	8d	.
.	.	.	8b
.	16r	16r	.
.	.	.	4r
.	16b-	16d	.
4..r	8B-	8e-	.
.	2r	16r	.
.	.	.	16r
.	.	16e	.
.	.	.	16aa-
.	.	8f	.
.	.	.	=54
.	.	.	8aa-
.	.	4r	.
.	.	.	4.r
16AA	.	.	.
8BB-	.	.	.
8r	16r	16r	.
.	16b-	16d	.
=51	=51	=51	.
2r	8B-	8e-	.
.	.	.	2r
.	4r	16r	.
.	.	16e	.
.	.	8f	.
.	16r	16r	.
.	16b-	16f#	.
8.r	=52	8g	.
.	8B-	.	.
.	.	.	=55
.	.	.	2ee-
.	.	4r	.
.	2r	.	.
16AA	.	.	.
8BB-	.	.	.
8r	.	16r	.
.	.	16e	.
=52	.	=52	.
2r	.	8f	.
.	.	.	4g
.	16r	16r	.
.	16f	16f#	.
.	8f	8g	.
.	.	.	4cc
.	8r	16r	.
.	.	16g	.
8.r	=53	8a-	.
.	8.r	.	.
.	.	.	=56
.	.	.	4..a-
.	.	4r	.
16d	.	.	.
.	16f	.	.
8d	.	.	.
.	8f	.	.
8r	.	16r	.
.	4r	.	.
.	.	16a-	.
.	.	.	16f
=53	.	=53	.
8.r	.	8a-	.
.	.	.	8d
.	16r	4r	.
.	.	.	4r
16d	16f	.	.
8d	8f	.	.
4r	8r	16r	.
.	.	.	16r
.	.	16a-	.
.	.	.	16d
.	=54	8a-	.
.	8.r	.	.
.	.	.	=57
.	.	.	4e-
16r	.	4r	.
16d	.	.	.
.	16f	.	.
8d	.	.	.
.	8f	.	.
.	.	.	4f
8r	.	16r	.
.	2r	.	.
.	.	16b-	.
=54	.	=54	.
8.r	.	8b-	.
.	.	.	4g
.	.	2..r	.
16d	.	.	.
8d	.	.	.
.	.	.	4a-
2r	8r	.	.
.	=55	.	.
.	2E-	.	.
.	.	.	=58
.	.	.	2g
8r	.	.	.
=55	.	=55	.
2EE-	2c	2e-	.
.	.	.	8f
.	.	.	8r
.	.	.	[64A
.	.	.	96A]
.	.	.	[64B-
.	.	.	96B-]
.	.	.	[64c
.	.	.	96c]
.	.	.	[64d
.	.	.	96d]
.	.	.	48e-
.	.	.	48f
.	.	.	48g
.	.	.	48a-
.	.	.	48b-
.	.	.	48cc
.	.	.	48dd
2EE	=56	2g	.
.	2c	.	.
.	.	.	=59
.	.	.	8ee-
.	.	.	8ee-
.	.	.	8ee-
.	.	.	8ee-
=56	.	=56	.
2FF	8F	2c	.
.	.	.	8ee-
.	4.r	.	.
.	.	.	8dd
.	.	.	8ee-
.	.	.	8ee
8BB-	=57	8A-	.
.	2.r	.	.
.	.	.	=60
.	.	.	8ff
4r	.	4r	.
.	.	.	8ff
.	.	.	8ff
16r	.	16r	.
.	.	.	8ff
16A-	.	16B-	.
=57	.	=57	.
4G	.	2.B-	.
.	.	.	8ff
.	.	.	8ee
4D	4f	.	.
.	.	.	8ff
.	.	.	8ff
4E-	=58	.	.
.	2e-	.	.
.	.	.	=61
.	.	.	[16gg-
.	.	.	24gg-]
.	.	.	8gg-
4AA-	.	4c	8gg-
.	.	.	8gg-
=58	.	=58	=62
2.BB-	4d	2B-	4bb
.	8.f	.	[4bb
.	16d	.	.
.	=59	2r	16bb]
.	2e-	.	.
.	.	.	16bb-
.	.	.	16bb
.	.	.	16bb-
8.AA-	.	.	16bb
.	.	.	16eee-
.	.	.	16ddd-
16FF	.	.	16bb
=59	.	=59	=63
2EE-	4G	8e-	8bb-
.	.	8e-	4bb-
.	4c	8e-	.
.	.	8e-	8bb-
4GG	=60	8e-	8aa-
.	4..A-	.	.
.	.	8d	8.aa-
4C	.	8e-	.
.	.	.	16bb
.	.	8e	16bb-
.	.	.	16aa-
.	16F	.	.
=60	.	=60	=64
4..AA-	8D	8f	8gg-
.	8r	8f	4gg-
.	8.b- 8.d	8f	.
.	.	8f	16bb-
16FF	16d 16b-	.	16gg-
8DD	=61	8f	8ff
.	8b- 8e-	.	.
4.r	.	8e	8ff
.	8b-	.	.
.	.	8f	8gg-
.	8b-	.	.
.	.	8f	16ff
.	8b-	.	.
.	.	.	16gg-
=61	.	=61	=65
2e-	8b-	8g-	8ff
.	8b-	8g-	8bb-
.	8b-	8g-	8bb-
.	8e-	8g-	8bb-
4G-	=62	8ee-	8bb-
.	8e-	.	.
.	.	8ee-	8bb-
.	8e-	.	.
4c-	.	8ee-	8bb-
.	8e-	.	.
.	.	8gg-	8bb-
.	8e-	.	.
=62	.	=62	=66
4..A-	8a-	8gg-	6bb-
.	8a-	8gg-	.
.	.	.	32ccc
.	.	.	32bb-
.	.	.	8.aa-
.	8a-	8gg-	.
.	8f	8gg-	.
.	.	.	16gg
16F	.	.	.
.	.	.	=67
.	.	.	4aa-
8D-	=63	8ff	.
.	8d-	.	.
4.r	.	8ff	.
.	8d-	.	.
.	.	.	8.aa-
.	.	8ff	.
.	8d-	.	.
.	.	8aa-	.
.	8d-	.	.
.	.	.	16bb-
.	.	.	8ccc
=63	.	=63	.
4G-	8d-	8aa-	.
.	.	.	4r
.	8d-	8aa-	.
4B-	8b-	8gg-	.
.	.	.	8ccc
.	8b-	8gg-	.
.	.	.	=68
.	.	.	8bb-
4d-	=64	8gg-	.
.	8b-	.	.
.	.	.	16r
.	.	8gg-	.
.	8b-	.	.
.	.	.	16bb-
.	.	.	8aa-
4d	.	8ff	.
.	8b-	.	.
.	.	.	16r
.	.	8ff	.
.	8b-	.	.
.	.	.	16aa-
.	.	.	8gg
=64	.	=64	.
4e-	8b-	8ff	.
.	.	.	16r
.	8b-	8ff	.
.	.	.	16gg
.	.	.	16ff
4g-	8a	8ee-	.
.	.	.	16gg
.	.	.	16aa-
.	8a	8ee-	.
.	.	.	16ff
.	.	.	=69
.	.	.	24ee-
4b-	=65	8dd	.
.	8b-	.	.
.	.	.	16dd
.	.	.	16ff
.	.	8dd	.
.	8b-	.	.
.	.	.	16ee-
.	.	.	16gg
4a	.	8ee-	.
.	8b-	.	.
.	.	.	16ff
.	.	.	16aa-
.	.	16dd	.
.	8b-	.	.
.	.	.	16gg
.	.	16ee-	.
.	.	.	=70
.	.	.	4..aa-
=65	.	=65	.
4b-	8cc	8dd	.
.	8cc	8dd	.
2.r	8dd	8dd	.
.	8dd	8dd	.
.	.	.	16ff
.	.	.	16dd
.	=66	8ee-	.
.	2ee-	.	.
.	.	.	16b-
.	.	.	16a
.	.	8ee-	.
.	.	.	16b-
.	.	.	32cc
.	.	.	32dd
.	.	8ff	.
.	.	.	32ee-
.	.	.	32ff
.	.	.	32gg
.	.	.	32aa-
.	.	8ff	.
.	.	.	16aa
.	.	.	=71
.	.	.	8.bb-
=66	.	=66	.
1r	4g	[2gg	.
.	.	.	16aa-
.	.	.	32gg
.	.	.	32bb-
.	4cc	.	.
.	.	.	32aa-
.	.	.	32gg
.	.	.	32ff
.	.	.	32aa-
.	.	.	32gg
.	.	.	32ff
.	.	.	32ee-
.	.	.	32ff
.	=67	8.gg]	.
.	4..a-	.	.
.	.	.	32gg
.	.	.	32ff
.	.	.	32ee-
.	.	.	32dd
.	.	.	32cc
.	.	.	32b-
.	.	32aa-	.
.	.	.	32a-
.	.	32gg	.
.	.	.	32g
.	.	8.ff	.
.	.	.	32f
.	.	.	32e-
.	.	.	32d
.	.	.	32c
.	.	.	16B
.	.	16ee	.
.	16f	.	.
.	.	.	=72
.	.	.	16c
=67	.	=67	.
1r	8d	4ff	.
.	.	.	16d
.	.	.	16e-
.	4r	.	.
.	.	.	16e
.	.	.	16f
.	.	8.ff	.
.	.	.	16g
.	.	.	16a-
.	16r	.	.
.	.	.	16b
.	16d	16gg	.
.	.	.	16cc
.	=68	8aa-	.
.	8e-	.	.
.	.	.	16ee
.	.	.	16ff
.	.	4r	.
.	16r	.	.
.	.	.	16gg
.	16e-	.	.
.	.	.	16aa-
.	8f	.	.
.	.	.	16bb-
.	.	.	16ccc
.	.	16r	.
.	16r	.	.
.	.	.	16ee-
.	.	16aa-	.
.	16f	.	.
.	.	.	=73
.	.	.	4..bb-
=68	.	=68	.
1r	8g	8gg	.
.	16r	16r	.
.	16g	16gg	.
.	8a-	8ff	.
.	16r	16r	.
.	.	.	32ff
.	.	.	32dd
.	16A-	16ff	.
.	.	.	8b-
.	=69	8ee-	.
.	2.B-	.	.
.	.	.	4r
.	.	16r	.
.	.	16ee-	.
.	.	8cc	.
.	.	.	16r
.	.	16r	.
.	.	.	16bb-
.	.	16cc	.
.	.	.	=74
.	.	.	4.aa
=69	.	=69	.
1r	.	2g	.
.	4r	.	.
.	.	.	24gg-
.	.	.	24ee-
.	.	.	24cc
.	.	.	24a
.	=70	4f	.
.	2.f	.	24cc
.	.	.	24ee-
.	.	.	8gg-
.	.	.	8.r
.	.	4r	.
.	.	.	16aa-
.	.	.	=75
.	.	.	16aa-
=70	.	=70	.
2.BB-	.	2.d	.
.	.	.	16gg
.	.	.	16gg
.	.	.	16gg-
.	.	.	16gg-
.	8.d	.	.
.	.	.	16ff
.	.	.	16ff
.	.	.	16ee-
.	16f	.	.
.	.	.	16ee-
.	=71	.	.
.	4g	.	.
.	.	.	16dd
.	.	.	16dd
.	.	.	16cc
.	.	.	16cc
4AA-	.	4f	.
.	4E-	.	.
.	.	.	16b-
.	.	.	16cc
.	.	.	16a-
.	.	.	=76
.	.	.	16a-
=71	.	=71	.
4GG	4..r	2e-	.
.	.	.	16g
.	.	.	16cc
.	.	.	16b-
.	.	.	16dd
4G	.	.	.
.	.	.	16ee-
.	.	.	16ff
.	.	.	16ee-
.	16G	.	.
.	.	.	16ccc
4..r	=72	4g	.
.	8A-	.	.
.	.	.	16bb-
.	.	.	4r
.	2.r	.	.
.	.	8.r	.
.	.	.	16r
.	.	.	16ee-
16GG	.	16e-	.
.	.	.	=77
.	.	.	16dd
=72	.	=72	.
8AA-	.	8e-	.
.	.	.	16ee-
.	.	.	16ee-
2r	.	2.r	.
.	.	.	16ee
.	.	.	16ee
.	.	.	16ff
.	.	.	16ff
.	16e-	.	.
.	.	.	16gg
.	16c	.	.
.	.	.	16gg
.	=73	.	.
.	8d	.	.
.	.	.	16aa-
.	.	.	16aa-
8r	.	.	.
.	8d	.	.
.	.	.	16bb-
.	.	.	16bb-
4AA	.	.	.
.	8d	.	.
.	.	.	16bb
.	.	.	16.ccc
.	.	8f	.
.	8d	.	.
.	.	.	32aa-
.	.	.	=78
.	.	.	8.aa-
=73	.	=73	.
8BB-	8d	8f	.
8BB-	8d	8f	.
.	.	.	16gg
.	.	.	8gg
8BB-	8d	8f	.
.	.	.	16r
8BB-	8d	8f	.
.	.	.	16gg
.	.	.	8gg
8BB-	=74	8f	.
.	8e-	.	.
.	.	.	4r
8BB-	.	8f	.
.	8e-	.	.
8BB-	.	8f	.
.	8e-	.	.
.	.	.	16r
8BB-	.	8f	.
.	8e-	.	.
.	.	.	16gg
.	.	.	=79
.	.	.	16gg
=74	.	=74	.
8BB-	8e-	8g-	.
.	.	.	16gg-
.	.	.	16gg-
8BB-	8e-	8g-	.
.	.	.	16ff
.	.	.	16ff
8BB-	8e-	8g-	.
.	.	.	16ccc
.	.	.	16ccc
8BB-	8c	8g-	.
.	.	.	16ccc
.	.	.	16ee
8BB-	=75	8g-	.
.	8B-	.	.
.	.	.	16ff
.	.	.	16gg
8BB-	.	8g-	.
.	8c	.	.
.	.	.	16ff
.	.	.	16ff
8BB-	.	8g-	.
.	8d	.	.
.	.	.	16ccc
.	.	.	16ccc
8BB-	.	8e-	.
.	8e-	.	.
.	.	.	16ccc
.	.	.	=80
.	.	.	16ff
=75	.	=75	.
8BB-	8f	8d	.
.	.	.	16bb-
.	.	.	16bb-
8BB-	8e-	8e-	.
.	.	.	16bb-
.	.	.	16b-
8BB-	8d	8f	.
.	.	.	16bb-
.	.	.	16bb-
8BB-	8d	8g	.
.	.	.	16bb-
.	.	.	24d
8BB-	=76	8a-	.
.	8e-	.	24b-
.	.	.	24aa-
.	.	.	16aa-
8BB-	.	8g	.
.	8e-	.	.
.	.	.	16aa-
.	.	.	24e-
8BB-	.	8f	.
.	8e-	.	24b-
.	.	.	24gg
.	.	.	16gg
8BB-	.	8f	.
.	8e-	.	.
.	.	.	16gg
.	.	.	=81
.	.	.	4ff
=76	.	=76	.
8BB-	8e-	8e-	.
8BB-	8e-	8g	.
.	.	.	4r
8BB-	8e-	8g	.
8BB-	8e-	8g	.
.	.	.	4dd
8BB-	=77	8g	.
.	8f	.	.
8BB-	.	8g	.
.	8e-	.	.
.	.	.	4r
8BB-	.	8g	.
.	8d	.	.
8BB-	.	8g	.
.	8c	.	.
.	.	.	=82
.	.	.	4ee-
=77	.	=77	.
8BB-	8B-	8a-	.
8BB-	8B-	8g	.
.	.	.	4r
8BB-	8B-	8f	.
8BB-	8B-	8e-	.
.	.	.	2r
8BB-	=78	8d	.
.	8c	.	.
8BB-	.	8d	.
.	8c	.	.
8BB-	.	8d	.
.	8c	.	.
8BB-	.	8d	.
.	8c	.	.
.	.	.	=83
.	.	.	[16cc
=78	.	=78	.
8C	8c	8d	.
.	.	.	24cc]
.	.	.	8cc
8C	8c	8e-	.
.	.	.	8dd
8C	8c	8e-	.
.	.	.	8ee-
8C	8c	8e-	.
.	.	.	=84
.	.	.	[16b-
8C	=79	8e-	.
.	8c	.	.
.	.	.	24b-]
.	.	.	8B-
8C	.	8e-	.
.	8c	.	.
.	.	.	8c
8BB-	.	8e-	.
.	8c	.	.
.	.	.	8d
8BB-	.	8e-	.
.	8c	.	.
.	.	.	=85
.	.	.	2ee-
=79	.	=79	.
8AA	8c	8e-	.
8AA	8c	8e-	.
8AA	8c	8e-	.
8AA	8c	8e-	.
.	.	.	4g
8AA	=80	8e-	.
.	8B-	.	.
8AA	.	8e-	.
.	8r	.	.
.	.	.	4cc
8AA	.	8e-	.
.	8B-	.	.
8AA	.	8e-	.
.	8r	.	.
.	.	.	=86
.	.	.	4..a-
=80	.	=80	.
8AA-	8B-	8dd 8f	.
8r	8r	8r	.
8GG	8B-	8ee- 8e-	.
.	.	.	16f
8r	8r	8r	.
.	.	.	8d
8BB-	=81	8aa- 8b- 8d	.
.	4A-	.	.
.	.	.	4.r
8r	.	8r	.
8EE-	.	8gg 8e- 8b-	.
.	4r	.	.
8r	.	8r	.
.	.	.	=87
.	.	.	4..b-
=81	.	=81	.
4GG	4A-	8ff 8a- 8cc	.
.	.	4.r	.
4r	4r	.	.
.	.	.	16g
.	.	.	8e-
4AA-	=82	8dd 8f 8B-	.
.	8G	.	.
.	.	.	4.r
.	.	4.r	.
.	8e-	.	.
4r	.	.	.
.	8e-	.	.
.	8e-	.	.
.	.	.	=88
.	.	.	4..f
=82	.	=82	.
2E-	8e-	8g	.
.	8e-	8g	.
.	8e-	8g	.
.	.	.	16d
.	8e-	8g	.
.	.	.	4B
4GG	=83	8g	.
.	8e-	.	.
.	.	8g	.
.	8e-	.	.
.	.	.	8B-
4C	.	8g	.
.	8e-	.	.
.	.	.	8A-
.	.	8g	.
.	8e-	.	.
.	.	.	=89
.	.	.	4..G
=83	.	=83	.
4..AA-	8e-	8f	.
.	8e-	8f	.
.	8e-	8f	.
.	.	.	16B-
.	8e-	8f	.
.	.	.	[8e-
16FF	.	.	.
4..AA	=84	8g-	.
.	8e-	.	.
.	.	.	32e-]
.	.	.	16.r
.	.	8g-	.
.	8e-	.	.
.	.	.	8e-
.	.	8g-	.
.	8e-	.	.
.	.	.	8r
.	.	8g-	.
.	8e-	.	.
.	.	.	=90
.	.	.	[16e-
16AA	.	.	.
.	.	.	24e-]
=84	.	=84	.
8BB-	8f	8g	.
.	.	.	==
*	*	*	*-
!!!RWG: This file only contains pitch and duration data.
!!!RWG: Transposing instruments are not transposed.
8BB-	8A-	8g
8BB-	8A-	8g
8BB-	8A-	8g
8BB-	=85	8a-
.	4G	.
8BB-	.	8f
8BB-	.	8f
.	4B-	.
8BB-	.	8f
=85	.	=85
8EE-	4d-	2g
8EE-	.	.
8EE-	4c	.
8EE-	.	.
8EE-	=86	4b-
.	[2c-	.
8EE-	.	.
8EE-	.	4a-
8EE-	.	.
=86	.	=86
8EE-	8c-]	[2d
8EE-	8c-	.
8EE-	8c-	.
8EE-	8c-	.
8EE-	=87	8d]
.	[2B-	.
8EE-	.	8A- 8d
8EE-	.	8d 8A-
8EE-	.	8A- 8d
=87	.	=87
8EE-	8B-]	[2G
8EE-	8B-	.
8EE-	8B-	.
8EE-	8B-	.
8EE-	=88	8G 8e-]
.	[2c-	.
8EE-	.	8e- 8G
8EE-	.	8G 8e-
8EE-	.	8G 8e-
=88	.	=88
8EE-	8c-]	[2d
8EE-	8c-	.
8EE-	8c-	.
8EE-	8c-	.
8EE-	=89	8d 8A-]
.	2B-	.
8EE-	.	8A- 8d
8EE-	.	8d 8A-
8EE-	.	8A- 8d
=89	.	=89
2EE-	8G	2e- 2G
.	8r	.
.	8G	.
.	8r	.
8EE-	=90	8B-
.	1G	.
8r	.	8r
8EE-	.	8B-
8r	.	8r
=90	.	=90
1EE-	.	1B-
.	==	.
*	*-	*
!!!RWG: This file only contains pitch and duration data.
!!!RWG: Transposing instruments are not transposed.
==	==
*-	*-
!!!RWG: This file only contains pitch and duration data.
!!!RWG: Transposing instruments are not transposed.
!!!RWG: Key is interpreted using the Humdrum key tool.
!!!SCA: 
!!!YOR: Trautwein Edition
!!!AGN: chamber; string quartet
!!!AFT: stage1
!!!ENC: F. Bennion
!!!END: 1997/04/15
!!!AST: classical
!!!YEC: Copyright 1994, Center for Computer Assisted Research in the Humanities
!!!YEM: Rights to all derivative electronic formats reserved.
!!!YEM: Refer to licensing agreement for further details.
!!!YEN: United States of America
!!!EED: W.B. Hewlett
!!!KEY: 109587581
!!!EMD: Converted from MuseData to Humdrum Jul 30, 1999, by Bret Aarden using muse2kern.
!!!VTS: 3126655357
